public/img/ticket.svg

<svg width="22" height="18" viewBox="0 0 22 18" fill="none" xmlns="http://www.w3.org/2000/svg">
<path fill-rule="evenodd" clip-rule="evenodd" d="M0.966548 0.988515C1.58542 0.355579 2.42479 0 3.3 0H18.7C19.5752 0 20.4146 0.355579 21.0335 0.988515C21.6523 1.62145 22 2.47989 22 3.375V6.75C22 7.04837 21.8841 7.33452 21.6778 7.5455C21.4715 7.75647 21.1917 7.875 20.9 7.875C20.6083 7.875 20.3285 7.99353 20.1222 8.2045C19.9159 8.41548 19.8 8.70163 19.8 9C19.8 9.29837 19.9159 9.58452 20.1222 9.7955C20.3285 10.0065 20.6083 10.125 20.9 10.125C21.5075 10.125 22 10.6287 22 11.25V14.625C22 15.5201 21.6523 16.3785 21.0335 17.0115C20.4146 17.6444 19.5752 18 18.7 18H3.3C2.42479 18 1.58542 17.6444 0.966548 17.0115C0.347678 16.3785 0 15.5201 0 14.625V11.25C0 10.6287 0.492487 10.125 1.1 10.125C1.39174 10.125 1.67153 10.0065 1.87782 9.7955C2.08411 9.58452 2.2 9.29837 2.2 9C2.2 8.70163 2.08411 8.41548 1.87782 8.2045C1.67153 7.99353 1.39174 7.875 1.1 7.875C0.492487 7.875 0 7.37132 0 6.75V3.375C0 2.47989 0.347677 1.62145 0.966548 0.988515ZM15.4 15.75V14.625C15.4 14.0037 14.9075 13.5 14.3 13.5C13.6925 13.5 13.2 14.0037 13.2 14.625V15.75H3.3C3.00826 15.75 2.72847 15.6315 2.52218 15.4205C2.31589 15.2095 2.2 14.9234 2.2 14.625V12.182C2.65969 12.0158 3.08211 11.7458 3.43345 11.3865C4.05232 10.7535 4.4 9.89511 4.4 9C4.4 8.10489 4.05232 7.24645 3.43345 6.61352C3.08211 6.25418 2.65969 5.98425 2.2 5.81802V3.375C2.2 3.07663 2.31589 2.79048 2.52218 2.5795C2.72847 2.36853 3.00826 2.25 3.3 2.25H13.2V3.375C13.2 3.99632 13.6925 4.5 14.3 4.5C14.9075 4.5 15.4 3.99632 15.4 3.375V2.25H18.7C18.9917 2.25 19.2715 2.36853 19.4778 2.5795C19.6841 2.79048 19.8 3.07663 19.8 3.375V5.81802C19.3403 5.98425 18.9179 6.25419 18.5665 6.61352C17.9477 7.24645 17.6 8.10489 17.6 9C17.6 9.89511 17.9477 10.7535 18.5665 11.3865C18.9179 11.7458 19.3403 12.0158 19.8 12.182V14.625C19.8 14.9234 19.6841 15.2095 19.4778 15.4205C19.2715 15.6315 18.9917 15.75 18.7 15.75H15.4ZM14.3 6.75C14.9075 6.75 15.4 7.25368 15.4 7.875V10.125C15.4 10.7463 14.9075 11.25 14.3 11.25C13.6925 11.25 13.2 10.7463 13.2 10.125V7.875C13.2 7.25368 13.6925 6.75 14.3 6.75Z" fill="#08A6BB"/>
</svg>

<svg width="22" height="18" fill="none" xmlns="http://www.w3.org/2000/svg"><path fill-rule="evenodd" clip-rule="evenodd" d="M.967.989A3.263 3.263 0 013.3 0h15.4c.875 0 1.715.356 2.334.989.618.632.966 1.49.966 2.386V6.75c0 .298-.116.585-.322.795a1.09 1.09 0 01-.778.33c-.292 0-.572.119-.778.33A1.138 1.138 0 0019.8 9c0 .298.116.585.322.796.206.21.486.329.778.329.608 0 1.1.504 1.1 1.125v3.375a3.42 3.42 0 01-.966 2.387A3.264 3.264 0 0118.7 18H3.3a3.263 3.263 0 01-2.333-.988A3.414 3.414 0 010 14.625V11.25c0-.621.492-1.125 1.1-1.125.292 0 .572-.118.778-.33a1.141 1.141 0 000-1.591 1.088 1.088 0 00-.778-.329C.492 7.875 0 7.371 0 6.75V3.375C0 2.48.348 1.621.967.989zM15.4 15.75v-1.125c0-.621-.492-1.125-1.1-1.125-.607 0-1.1.504-1.1 1.125v1.125H3.3c-.292 0-.572-.118-.778-.33a1.138 1.138 0 01-.322-.795v-2.443a3.29 3.29 0 001.233-.796A3.414 3.414 0 004.4 9c0-.895-.348-1.754-.967-2.386A3.29 3.29 0 002.2 5.818V3.375c0-.298.116-.585.322-.796A1.09 1.09 0 013.3 2.25h9.9v1.125c0 .621.493 1.125 1.1 1.125.607 0 1.1-.504 1.1-1.125V2.25h3.3c.292 0 .572.119.778.33.206.21.322.497.322.795v2.443c-.46.166-.882.436-1.233.796A3.415 3.415 0 0017.6 9c0 .895.348 1.754.966 2.386.352.36.774.63 1.234.796v2.443c0 .298-.116.585-.322.796-.207.21-.486.329-.778.329h-3.3zm-1.1-9c.607 0 1.1.504 1.1 1.125v2.25c0 .621-.492 1.125-1.1 1.125-.607 0-1.1-.504-1.1-1.125v-2.25c0-.621.493-1.125 1.1-1.125z" fill="#08A6BB"/></svg>
